X:2
T:Calver Lodge.
M:C
L:1/8
B:Complete Tutor Violin  (c. 1815)
Z:Dr. Evan Jones, 2005
K:F
d !segno!| f3 e gfed | ~c=Bcd cdcA | FdcA FdcA | B2 G2 G3 c | f3 e gfed | c=Bcd cdcA |
FdcA cBGA | F2 f2 f2 !fermata!|| a | gaba gfeg | fgab c'3 c' | c'bgb bafg | gfga g3 a |
gaba gfeg | fgab c'3 c' | c'bgb bafb gefd ccde !segno!|]

